X: 132
T: Dinny Delaney's
M: 12/8
L: 1/8
R: Slide
K: A Dorian
"Dm"A2D ~D3 "C"A2G EFG|"Dm"A2D ~D3 "C"G2A GED|"Dm"A2D ~D3 "C"c2d e2d|"Dm"dcA AGE "C"G2A GED:|
"Dm"dcA AGE "C"c3 ABc|"Dm"dcA AGE "C"G2A GED|"Dm"dcA AGE "C"c2d e2d|"Dm"dcA AGE "C"G2A GED:|!
"D"A2D ~D3 "G"A2B GAB|"D"A2B G2A "C"E3 GED|"D"A2D ~D3 "C"c2d e2d|"D"dcA AGE "C"G2A GED:|!
"Dm"dcA AGE "C"c3 ABc|"Dm"dcA AGE "C"G2A GED|"Dm"dcA AGE "C"c2d e2d|"Dm"dcA AGE "C"G2A GED:|

